X: 1
T: The Wee Cooper o' Fife
P: The Wee Cooper o'Fife
C: from Peter White arrangement
C: arr. T. Traub 12-31-1999, rev. Aug 3 2014
R: jig
L: 1/8
M: 6/8
K: A
|: E|"A"CEE EEE|"D"FGA "E"E2 z|"A"EFG "F#m"ABc|"Bm"d2 c "E"B2 E|"A"C2 E EEE|
 "D"FGA "E"E2 z|"A"cee "E"ecB|"A"A2 A ABc|"A"E2 E ECE|"D"F2 G "A"A2 :|
z|"A"ecA ecA|"D"def "E"e2 z|"A"ecA ecA|"D"d2 c "E"B2 z|"A"ecA ecA|
"D"def "E"e2 d|"A"cee "E"ecB|"A"A2 A ABc|"A"E2 E ECE|"D"F2 G "A"A2 ||
E|"A"C2 E E2 E|"D"FGA "E"E2 z|"A"EFG "F#m"ABc|"Bm"d2 c "E"B2 E|"A"C2 E EEE|
 "D"FGA "E"E2 z|"A"cee "E"ecB|"A"A2 A ABc|"A"E2 E ECE|"D"F2 G "A"A2 |]
